src/lib/packages/icons/src/assets/line/arrow-import.svg

<svg width="24" height="24" viewBox="0 0 24 24" fill="none" xmlns="http://www.w3.org/2000/svg">
<path d="M11.75 11.189L19.47 3.46902C19.763 3.17602 20.238 3.17602 20.531 3.46902C20.824 3.76202 20.824 4.23705 20.531 4.53005L12.811 12.25H16C16.414 12.25 16.75 12.586 16.75 13C16.75 13.414 16.414 13.75 16 13.75H11C10.902 13.75 10.8049 13.7299 10.7129 13.6919C10.5299 13.6159 10.3841 13.4701 10.3081 13.2871C10.2701 13.1951 10.25 13.098 10.25 13V8.00002C10.25 7.58602 10.586 7.25002 11 7.25002C11.414 7.25002 11.75 7.58602 11.75 8.00002V11.189ZM20 12.25C19.586 12.25 19.25 12.586 19.25 13V17C19.25 18.577 18.577 19.25 17 19.25H7C5.423 19.25 4.75 18.577 4.75 17V7.00002C4.75 5.42302 5.423 4.75002 7 4.75002H11C11.414 4.75002 11.75 4.41402 11.75 4.00002C11.75 3.58602 11.414 3.25002 11 3.25002H7C4.582 3.25002 3.25 4.58202 3.25 7.00002V17C3.25 19.418 4.582 20.75 7 20.75H17C19.418 20.75 20.75 19.418 20.75 17V13C20.75 12.586 20.414 12.25 20 12.25Z" fill="currentColor"/>
</svg>

<svg xmlns="http://www.w3.org/2000/svg" width="24" height="24" fill="none"><path fill="currentColor" d="m11.75 11.189 7.72-7.72a.75.75 0 1 1 1.061 1.061l-7.72 7.72H16a.75.75 0 0 1 0 1.5h-5a.751.751 0 0 1-.75-.75V8a.75.75 0 0 1 1.5 0v3.189ZM20 12.25a.75.75 0 0 0-.75.75v4c0 1.577-.673 2.25-2.25 2.25H7c-1.577 0-2.25-.673-2.25-2.25V7c0-1.577.673-2.25 2.25-2.25h4a.75.75 0 0 0 0-1.5H7C4.582 3.25 3.25 4.582 3.25 7v10c0 2.418 1.332 3.75 3.75 3.75h10c2.418 0 3.75-1.332 3.75-3.75v-4a.75.75 0 0 0-.75-.75Z"/></svg>
